2020/03/02/iou-net/equation.svg

<svg xmlns:xlink="http://www.w3.org/1999/xlink" width="31.325ex" height="6.843ex" style="vertical-align:-3.338ex" viewBox="0 -1508.9 13487.1 2946.1" xmlns="http://www.w3.org/2000/svg" font-size="15"><defs><path stroke-width="1" id="a" d="M202 508q-23 0-33 12t-11 27q0 10 6 30t21 47 45 51 71 35l32 5h12q33 0 39-1 63-11 105-53t60-93 17-111q0-95-47-217T402 53q-81-75-179-75-100 0-150 78-31 46-31 92v11q0 117 87 211t193 95q61 0 92-31t41-67l3 11q20 83 20 137 0 88-41 124t-93 37q-78 0-121-64 41-6 41-40 0-25-18-44t-44-20zm228-202q0 66-29 94t-68 28q-63 0-111-46-25-28-39-59t-33-102q-18-72-18-105 0-95 100-95 12 0 18 1 77 13 124 90 15 25 35 84t21 110z"/><path stroke-width="1" id="b" d="M228 637q-34 0-36 4-1 2-1 8 0 24 11 33 2 1 15 1 54-3 127-3 141 0 162 3h12q6-6 6-9t-2-18q-5-15-9-19h-38q-69-1-81-9-7-4-14-28t-67-264q-16-65-34-138T252 88l-9-36q0-4 9-4t59-2h17q32 0 51 1t49 7 50 18 44 34 42 55q16 30 30 67t17 42q5 3 17 3h13q6-9 6-11t-20-59-44-120-26-74q-2-5-4-6t-16-3-43-1h-76q-65 0-124 1H116Q32 0 32 10q0 7 2 14 5 19 10 21 4 1 15 1h6q27 0 60 3 14 3 19 12 3 4 72 278t69 289q0 7-57 9z"/><path stroke-width="1" id="c" d="M52 289q7 42 54 97t116 56q35 0 64-18t43-45q42 63 101 63 37 0 64-22t28-59q0-29-14-47t-27-22-23-4q-19 0-31 11t-12 29q0 46 50 63-11 13-40 13-13 0-19-2-38-16-56-66-60-221-60-258 0-28 16-40t35-12q37 0 73 33t49 81q3 10 6 11t16 2h4q15 0 15-8 0-1-2-11-16-57-62-101T333-11q-70 0-106 63-41-62-94-62h-6q-49 0-70 26T35 71q0 32 19 52t45 20q43 0 43-42 0-20-12-35t-23-20-13-5l-3-1q0-1 6-4t16-7 19-3q36 0 62 45 9 16 23 68t28 108 16 66q5 27 5 39 0 28-15 40t-34 12q-40 0-75-32t-49-82q-2-9-5-10t-16-2H58q-6 6-6 11z"/><path stroke-width="1" id="d" d="M184 600q0 24 19 42t44 19q18 0 30-12t13-30q0-23-20-42t-44-20q-15 0-28 10t-14 33zM21 287q0 8 9 31t24 51 44 51 60 22q39 0 65-23t27-62q0-17-14-56t-40-105-42-113q-5-22-5-32 0-25 17-25 9 0 19 3t23 14 27 35 25 59q3 12 5 14t17 2q20 0 20-10 0-8-9-31t-25-51-45-50-62-22q-32 0-59 21T74 74q0 17 5 32t43 114q38 101 44 121t7 39q0 24-17 24h-2q-30 0-55-33t-38-84q-1-1-2-3t-1-3-2-2-3-1-4 0-8 0H27q-6 6-6 9z"/><path stroke-width="1" id="e" d="M56 347q0 13 14 20h637q15-8 15-20 0-11-14-19l-318-1H72q-16 5-16 20zm0-194q0 15 16 20h636q14-10 14-20 0-13-15-20H70q-14 7-14 20z"/><path stroke-width="1" id="f" d="M60 948q3 2 605 2h602l58-135q59-138 63-146h-40l-7 14q-21 41-56 78-50 48-111 77t-141 43-151 17-183 4H251l8-11q463-633 465-639 1-2 0-6-3-3-264-302L196-356q0-1 211-1h141q89 0 128-1 136 0 220 5t167 21 141 49 103 87q21 26 41 72h40q0-1-7-21t-25-65-31-84l-58-155-601-1q-602 0-605 2-6 2-6 9 0 2 2 6l533 610q0 1-33 45T452 366 322 544L56 909l-1 15q0 21 5 24z"/><path stroke-width="1" id="g" d="M21 287q1 3 2 8t5 22 10 31 15 33 20 30 26 22 33 9q29 0 51-12t31-22 11-20q2-6 3-6t8 7q48 52 111 52h3q48 0 72-41 8-19 8-37 0-30-13-48t-26-23-25-4q-20 0-32 11t-12 29q0 48 56 64-22 13-36 13-56 0-103-74-10-16-15-33t-34-133Q156 25 151 16q-13-27-43-27-13 0-21 6T76 7t-2 10q0 13 40 172t40 177q0 39-26 39-21 0-36-28t-24-61-11-36q-2-2-16-2H27q-6 6-6 9z"/><path stroke-width="1" id="h" d="M297 596q0 31 21 48t43 17q17 0 28-10t14-28q0-28-19-47t-44-19q-18 0-30 10t-13 29zm-9-220q0 29-26 29-22 0-42-12t-35-31-24-37-17-32l-7-14q-2-1-16-1h-14q-6 6-6 8t4 13q21 49 59 92t88 50h8q7 0 12 1 24-1 44-10 25-14 38-31t13-53v-16l-49-199Q267-67 264-75q-18-50-70-89T75-204q-50 0-68 21t-19 46q0 27 19 46t46 20q17 0 29-10t13-31q0-36-32-55 6-1 14-1 34 0 62 28t43 66l11 42q11 43 26 104t32 125 27 111 11 57q0 7-1 11z"/><path stroke-width="1" id="i" d="M118-250V750h137v-40h-97v-920h97v-40H118z"/><path stroke-width="1" id="j" d="M229 286q-13 134-13 150 0 18 24 28h5q4 0 6 1 12-1 22-9t10-20q0-17-6-80t-7-70l58 42q56 41 61 44t10 3q13 0 24-10t12-27q0-13-10-23-5-3-68-33t-68-32l66-31 70-35q9-9 9-23 0-15-9-25t-24-11q-8 0-18 6t-55 40l-58 42q13-134 13-150 0-10-7-19t-26-9q-19 0-26 9t-8 19q0 17 6 80t7 70l-58-42q-56-41-61-44-4-3-10-3-13 0-24 10t-12 27v8q0 3 3 6t5 6 9 7 13 7 19 9 25 11 32 15 40 20L74 315q-9 9-9 23 0 15 9 25t24 11q8 0 18-6t55-40l58-42z"/><path stroke-width="1" id="k" d="M94 250q0 69 10 131t23 107 37 88 38 67 42 52 33 34 25 21h17q14 0 14-9 0-3-17-21t-41-53-49-86-42-138-17-193 17-192 41-139 49-86 42-53 17-21q0-9-15-9h-16l-28 24q-94 85-137 212T94 250z"/><path stroke-width="1" id="l" d="M78 35v25l16 43 43 18q28 0 50-25t23-88q0-35-9-68t-21-57-26-41-24-27-13-9q-4 0-13 9t-9 13q0 4 11 16t25 30 26 50 16 73V9l-1-1q-2-1-5-2t-6-3-9-2-12-1q-27 0-44 17z"/><path stroke-width="1" id="m" d="M60 749l4 1h22l28-24q94-85 137-212t43-264q0-68-10-131T261 12t-37-88-38-67-41-51-32-33-23-19l-4-4H63q-3 0-5 3t-3 9q1 1 11 13Q221-64 221 250T66 725q-10 12-11 13 0 8 5 11z"/><path stroke-width="1" id="n" d="M22 710v40h137V-250H22v40h97v920H22z"/><path stroke-width="1" id="o" d="M21 287q0 14 15 48t48 71 74 36q41 0 66-23t26-64q-2-19-3-21 0-3-16-46t-33-97-16-86q0-43 14-60t42-18q23 0 43 11t31 23 27 33q0 1 5 20t14 59 19 74q38 150 42 157 13 27 43 27 13 0 21-7t11-12 2-9q0-13-49-210T391-23q-28-83-97-132t-138-50q-45 0-79 22t-34 66q0 22 7 37t19 22 20 10 17 3q44 0 44-42 0-20-12-35t-23-20-13-5l-3-1q2-5 19-12t34-7h8q17 0 26 2 33 9 61 38t43 62 23 56 8 30l-6-4q-6-4-19-11T270-6q-20-5-39-5-46 0-81 22t-46 71q-1 7-1 31 0 57 35 149t35 117v14q0 3-4 7t-11 4h-4q-23 0-42-19t-30-41-17-42-8-22q-2-2-16-2H27q-6 6-6 9z"/></defs><g stroke="currentColor" fill="currentColor" stroke-width="0" transform="scale(1 -1)"><path d="M120 220h1604v60H120z" stroke="none"/><g transform="translate(297 676)"><use xlink:href="#a"/><use xlink:href="#b" x="567"/></g><g transform="translate(180 -736)"><use xlink:href="#a"/><g transform="translate(567)"><use xlink:href="#c"/><use transform="scale(.707)" xlink:href="#d" x="809" y="-213"/></g></g><use xlink:href="#e" x="2122"/><g transform="translate(3178)"><use xlink:href="#f"/><use transform="scale(.707)" xlink:href="#g" x="795" y="-1487"/></g><g transform="translate(4789)"><use xlink:href="#f"/><use transform="scale(.707)" xlink:href="#h" x="815" y="-1536"/></g><use xlink:href="#i" x="6234"/><use xlink:href="#d" x="6512"/><use xlink:href="#e" x="7135"/><g transform="translate(8192)"><use xlink:href="#d"/><use transform="scale(.707)" xlink:href="#j" x="488" y="583"/></g><use xlink:href="#k" x="8991"/><use xlink:href="#g" x="9380"/><use xlink:href="#l" x="9832"/><use xlink:href="#h" x="10277"/><use xlink:href="#m" x="10690"/><use xlink:href="#n" x="11079"/><path d="M11478 220h1888v60h-1888z" stroke="none"/><g transform="translate(11797 676)"><use xlink:href="#a"/><use xlink:href="#b" x="567"/></g><g transform="translate(11538 -736)"><use xlink:href="#a"/><g transform="translate(567)"><use xlink:href="#o"/><g transform="matrix(.707 0 0 .707 490 -150)"><use xlink:href="#g"/><use xlink:href="#h" x="451"/></g></g></g></g></svg>

<svg xmlns:xlink="http://www.w3.org/1999/xlink" width="31.325ex" height="6.843ex" style="font-size: 15px; vertical-align: -3.338ex;" viewBox="0 -1508.9 13487.1 2946.1" role="img" focusable="false" xmlns="http://www.w3.org/2000/svg">
<defs>
<path stroke-width="1" id="E1-MJMAIN-2202" d="M202 508Q179 508 169 520T158 547Q158 557 164 577T185 624T230 675T301 710L333 715H345Q378 715 384 714Q447 703 489 661T549 568T566 457Q566 362 519 240T402 53Q321 -22 223 -22Q123 -22 73 56Q42 102 42 148V159Q42 276 129 370T322 465Q383 465 414 434T455 367L458 378Q478 461 478 515Q478 603 437 639T344 676Q266 676 223 612Q264 606 264 572Q264 547 246 528T202 508ZM430 306Q430 372 401 400T333 428Q270 428 222 382Q197 354 183 323T150 221Q132 149 132 116Q132 21 232 21Q244 21 250 22Q327 35 374 112Q389 137 409 196T430 306Z"></path>
<path stroke-width="1" id="E1-MJMATHI-4C" d="M228 637Q194 637 192 641Q191 643 191 649Q191 673 202 682Q204 683 217 683Q271 680 344 680Q485 680 506 683H518Q524 677 524 674T522 656Q517 641 513 637H475Q406 636 394 628Q387 624 380 600T313 336Q297 271 279 198T252 88L243 52Q243 48 252 48T311 46H328Q360 46 379 47T428 54T478 72T522 106T564 161Q580 191 594 228T611 270Q616 273 628 273H641Q647 264 647 262T627 203T583 83T557 9Q555 4 553 3T537 0T494 -1Q483 -1 418 -1T294 0H116Q32 0 32 10Q32 17 34 24Q39 43 44 45Q48 46 59 46H65Q92 46 125 49Q139 52 144 61Q147 65 216 339T285 628Q285 635 228 637Z"></path>
<path stroke-width="1" id="E1-MJMATHI-78" d="M52 289Q59 331 106 386T222 442Q257 442 286 424T329 379Q371 442 430 442Q467 442 494 420T522 361Q522 332 508 314T481 292T458 288Q439 288 427 299T415 328Q415 374 465 391Q454 404 425 404Q412 404 406 402Q368 386 350 336Q290 115 290 78Q290 50 306 38T341 26Q378 26 414 59T463 140Q466 150 469 151T485 153H489Q504 153 504 145Q504 144 502 134Q486 77 440 33T333 -11Q263 -11 227 52Q186 -10 133 -10H127Q78 -10 57 16T35 71Q35 103 54 123T99 143Q142 143 142 101Q142 81 130 66T107 46T94 41L91 40Q91 39 97 36T113 29T132 26Q168 26 194 71Q203 87 217 139T245 247T261 313Q266 340 266 352Q266 380 251 392T217 404Q177 404 142 372T93 290Q91 281 88 280T72 278H58Q52 284 52 289Z"></path>
<path stroke-width="1" id="E1-MJMATHI-69" d="M184 600Q184 624 203 642T247 661Q265 661 277 649T290 619Q290 596 270 577T226 557Q211 557 198 567T184 600ZM21 287Q21 295 30 318T54 369T98 420T158 442Q197 442 223 419T250 357Q250 340 236 301T196 196T154 83Q149 61 149 51Q149 26 166 26Q175 26 185 29T208 43T235 78T260 137Q263 149 265 151T282 153Q302 153 302 143Q302 135 293 112T268 61T223 11T161 -11Q129 -11 102 10T74 74Q74 91 79 106T122 220Q160 321 166 341T173 380Q173 404 156 404H154Q124 404 99 371T61 287Q60 286 59 284T58 281T56 279T53 278T49 278T41 278H27Q21 284 21 287Z"></path>
<path stroke-width="1" id="E1-MJMAIN-3D" d="M56 347Q56 360 70 367H707Q722 359 722 347Q722 336 708 328L390 327H72Q56 332 56 347ZM56 153Q56 168 72 173H708Q722 163 722 153Q722 140 707 133H70Q56 140 56 153Z"></path>
<path stroke-width="1" id="E1-MJSZ2-2211" d="M60 948Q63 950 665 950H1267L1325 815Q1384 677 1388 669H1348L1341 683Q1320 724 1285 761Q1235 809 1174 838T1033 881T882 898T699 902H574H543H251L259 891Q722 258 724 252Q725 250 724 246Q721 243 460 -56L196 -356Q196 -357 407 -357Q459 -357 548 -357T676 -358Q812 -358 896 -353T1063 -332T1204 -283T1307 -196Q1328 -170 1348 -124H1388Q1388 -125 1381 -145T1356 -210T1325 -294L1267 -449L666 -450Q64 -450 61 -448Q55 -446 55 -439Q55 -437 57 -433L590 177Q590 178 557 222T452 366T322 544L56 909L55 924Q55 945 60 948Z"></path>
<path stroke-width="1" id="E1-MJMATHI-72" d="M21 287Q22 290 23 295T28 317T38 348T53 381T73 411T99 433T132 442Q161 442 183 430T214 408T225 388Q227 382 228 382T236 389Q284 441 347 441H350Q398 441 422 400Q430 381 430 363Q430 333 417 315T391 292T366 288Q346 288 334 299T322 328Q322 376 378 392Q356 405 342 405Q286 405 239 331Q229 315 224 298T190 165Q156 25 151 16Q138 -11 108 -11Q95 -11 87 -5T76 7T74 17Q74 30 114 189T154 366Q154 405 128 405Q107 405 92 377T68 316T57 280Q55 278 41 278H27Q21 284 21 287Z"></path>
<path stroke-width="1" id="E1-MJMATHI-6A" d="M297 596Q297 627 318 644T361 661Q378 661 389 651T403 623Q403 595 384 576T340 557Q322 557 310 567T297 596ZM288 376Q288 405 262 405Q240 405 220 393T185 362T161 325T144 293L137 279Q135 278 121 278H107Q101 284 101 286T105 299Q126 348 164 391T252 441Q253 441 260 441T272 442Q296 441 316 432Q341 418 354 401T367 348V332L318 133Q267 -67 264 -75Q246 -125 194 -164T75 -204Q25 -204 7 -183T-12 -137Q-12 -110 7 -91T53 -71Q70 -71 82 -81T95 -112Q95 -148 63 -167Q69 -168 77 -168Q111 -168 139 -140T182 -74L193 -32Q204 11 219 72T251 197T278 308T289 365Q289 372 288 376Z"></path>
<path stroke-width="1" id="E1-MJMAIN-5B" d="M118 -250V750H255V710H158V-210H255V-250H118Z"></path>
<path stroke-width="1" id="E1-MJMAIN-2217" d="M229 286Q216 420 216 436Q216 454 240 464Q241 464 245 464T251 465Q263 464 273 456T283 436Q283 419 277 356T270 286L328 328Q384 369 389 372T399 375Q412 375 423 365T435 338Q435 325 425 315Q420 312 357 282T289 250L355 219L425 184Q434 175 434 161Q434 146 425 136T401 125Q393 125 383 131T328 171L270 213Q283 79 283 63Q283 53 276 44T250 35Q231 35 224 44T216 63Q216 80 222 143T229 213L171 171Q115 130 110 127Q106 124 100 124Q87 124 76 134T64 161Q64 166 64 169T67 175T72 181T81 188T94 195T113 204T138 215T170 230T210 250L74 315Q65 324 65 338Q65 353 74 363T98 374Q106 374 116 368T171 328L229 286Z"></path>
<path stroke-width="1" id="E1-MJMAIN-28" d="M94 250Q94 319 104 381T127 488T164 576T202 643T244 695T277 729T302 750H315H319Q333 750 333 741Q333 738 316 720T275 667T226 581T184 443T167 250T184 58T225 -81T274 -167T316 -220T333 -241Q333 -250 318 -250H315H302L274 -226Q180 -141 137 -14T94 250Z"></path>
<path stroke-width="1" id="E1-MJMAIN-2C" d="M78 35T78 60T94 103T137 121Q165 121 187 96T210 8Q210 -27 201 -60T180 -117T154 -158T130 -185T117 -194Q113 -194 104 -185T95 -172Q95 -168 106 -156T131 -126T157 -76T173 -3V9L172 8Q170 7 167 6T161 3T152 1T140 0Q113 0 96 17Z"></path>
<path stroke-width="1" id="E1-MJMAIN-29" d="M60 749L64 750Q69 750 74 750H86L114 726Q208 641 251 514T294 250Q294 182 284 119T261 12T224 -76T186 -143T145 -194T113 -227T90 -246Q87 -249 86 -250H74Q66 -250 63 -250T58 -247T55 -238Q56 -237 66 -225Q221 -64 221 250T66 725Q56 737 55 738Q55 746 60 749Z"></path>
<path stroke-width="1" id="E1-MJMAIN-5D" d="M22 710V750H159V-250H22V-210H119V710H22Z"></path>
<path stroke-width="1" id="E1-MJMATHI-79" d="M21 287Q21 301 36 335T84 406T158 442Q199 442 224 419T250 355Q248 336 247 334Q247 331 231 288T198 191T182 105Q182 62 196 45T238 27Q261 27 281 38T312 61T339 94Q339 95 344 114T358 173T377 247Q415 397 419 404Q432 431 462 431Q475 431 483 424T494 412T496 403Q496 390 447 193T391 -23Q363 -106 294 -155T156 -205Q111 -205 77 -183T43 -117Q43 -95 50 -80T69 -58T89 -48T106 -45Q150 -45 150 -87Q150 -107 138 -122T115 -142T102 -147L99 -148Q101 -153 118 -160T152 -167H160Q177 -167 186 -165Q219 -156 247 -127T290 -65T313 -9T321 21L315 17Q309 13 296 6T270 -6Q250 -11 231 -11Q185 -11 150 11T104 82Q103 89 103 113Q103 170 138 262T173 379Q173 380 173 381Q173 390 173 393T169 400T158 404H154Q131 404 112 385T82 344T65 302T57 280Q55 278 41 278H27Q21 284 21 287Z"></path>
</defs>
<g stroke="currentColor" fill="currentColor" stroke-width="0" transform="matrix(1 0 0 -1 0 0)">
<g transform="translate(120,0)">
<rect stroke="none" width="1604" height="60" x="0" y="220"></rect>
<g transform="translate(177,676)">
 <use xlink:href="#E1-MJMAIN-2202" x="0" y="0"></use>
 <use xlink:href="#E1-MJMATHI-4C" x="567" y="0"></use>
</g>
<g transform="translate(60,-736)">
 <use xlink:href="#E1-MJMAIN-2202" x="0" y="0"></use>
<g transform="translate(567,0)">
 <use xlink:href="#E1-MJMATHI-78" x="0" y="0"></use>
 <use transform="scale(0.707)" xlink:href="#E1-MJMATHI-69" x="809" y="-213"></use>
</g>
</g>
</g>
 <use xlink:href="#E1-MJMAIN-3D" x="2122" y="0"></use>
<g transform="translate(3178,0)">
 <use xlink:href="#E1-MJSZ2-2211" x="0" y="0"></use>
 <use transform="scale(0.707)" xlink:href="#E1-MJMATHI-72" x="795" y="-1487"></use>
</g>
<g transform="translate(4789,0)">
 <use xlink:href="#E1-MJSZ2-2211" x="0" y="0"></use>
 <use transform="scale(0.707)" xlink:href="#E1-MJMATHI-6A" x="815" y="-1536"></use>
</g>
 <use xlink:href="#E1-MJMAIN-5B" x="6234" y="0"></use>
 <use xlink:href="#E1-MJMATHI-69" x="6512" y="0"></use>
 <use xlink:href="#E1-MJMAIN-3D" x="7135" y="0"></use>
<g transform="translate(8192,0)">
 <use xlink:href="#E1-MJMATHI-69" x="0" y="0"></use>
 <use transform="scale(0.707)" xlink:href="#E1-MJMAIN-2217" x="488" y="583"></use>
</g>
 <use xlink:href="#E1-MJMAIN-28" x="8991" y="0"></use>
 <use xlink:href="#E1-MJMATHI-72" x="9380" y="0"></use>
 <use xlink:href="#E1-MJMAIN-2C" x="9832" y="0"></use>
 <use xlink:href="#E1-MJMATHI-6A" x="10277" y="0"></use>
 <use xlink:href="#E1-MJMAIN-29" x="10690" y="0"></use>
 <use xlink:href="#E1-MJMAIN-5D" x="11079" y="0"></use>
<g transform="translate(11358,0)">
<g transform="translate(120,0)">
<rect stroke="none" width="1888" height="60" x="0" y="220"></rect>
<g transform="translate(319,676)">
 <use xlink:href="#E1-MJMAIN-2202" x="0" y="0"></use>
 <use xlink:href="#E1-MJMATHI-4C" x="567" y="0"></use>
</g>
<g transform="translate(60,-736)">
 <use xlink:href="#E1-MJMAIN-2202" x="0" y="0"></use>
<g transform="translate(567,0)">
 <use xlink:href="#E1-MJMATHI-79" x="0" y="0"></use>
<g transform="translate(490,-150)">
 <use transform="scale(0.707)" xlink:href="#E1-MJMATHI-72" x="0" y="0"></use>
 <use transform="scale(0.707)" xlink:href="#E1-MJMATHI-6A" x="451" y="0"></use>
</g>
</g>
</g>
</g>
</g>
</g>
</svg>
